icons/mimetypes/64/image-vnd.dwg.svg

<?xml version="1.0" encoding="UTF-8" standalone="no"?>
<svg width="64" version="1.1" xmlns="http://www.w3.org/2000/svg" viewBox="0 0 64 64" height="64" xmlns:xlink="http://www.w3.org/1999/xlink" xmlns:inkscape="http://www.inkscape.org/namespaces/inkscape">
 <defs id="defs4">
  <linearGradient inkscape:collect="always" xlink:href="#linearGradient4300-2" id="linearGradient4306" y1="61" y2="3" x2="0" gradientUnits="userSpaceOnUse"/>
  <linearGradient inkscape:collect="always" xlink:href="#linearGradient4410" id="linearGradient4427" y1="31" x1="54" y2="17" x2="40" gradientUnits="userSpaceOnUse" gradientTransform="matrix(1 0 0 -1 -14 78)"/>
  <linearGradient inkscape:collect="always" id="linearGradient4410">
   <stop style="stop-color:#383e51" id="stop4412"/>
   <stop offset="1" style="stop-color:#655c6f;stop-opacity:0" id="stop4414"/>
  </linearGradient>
  <linearGradient inkscape:collect="always" xlink:href="#linearGradient4351-8" id="linearGradient4357" y1="61" y2="47" x2="0" gradientUnits="userSpaceOnUse"/>
  <linearGradient inkscape:collect="always" id="linearGradient4351-8">
   <stop style="stop-color:#97aad8" id="stop4353-0"/>
   <stop offset="1" style="stop-color:#c1cae7" id="stop4355-9"/>
  </linearGradient>
  <linearGradient id="linearGradient4300-2">
   <stop style="stop-color:#3a539b" id="stop4302-4"/>
   <stop offset="1" style="stop-color:#3f5aa9" id="stop4304-1"/>
  </linearGradient>
 </defs>
 <metadata id="metadata84"/>
 <path style="fill:url(#linearGradient4306)" id="rect3500" d="M 10 3 L 10 61 L 40 61 L 54 47 L 54 17 L 54 3 L 40 3 L 10 3 z "/>
 <rect width="30" x="10" y="60" height="1" style="fill:#2e3132;fill-opacity:0.294118" id="rect4169"/>
 <rect width="44" x="10" y="3" height="1" style="fill:#ffffff;fill-opacity:0.409836" id="rect4236"/>
 <path inkscape:connector-curvature="0" style="fill:url(#linearGradient4357);fill-rule:evenodd" id="path4314" d="M 54,47 40,61 40,47 Z"/>
 <path inkscape:connector-curvature="0" style="fill:url(#linearGradient4427);opacity:0.2;fill-rule:evenodd" id="path4320" d="M 26,61 40,47 40,61 Z"/>
 <path inkscape:connector-curvature="0" style="fill:none" id="rect4323" d="m -7,21 -12,4 0,13.544922 L -15,37 -15,26 -7,24.285156 -7,40.333984 -19,39 l 12,4 6,-2 0,-18 -6,-2 z"/>
 <path style="fill:#c1cae7;fill-rule:evenodd" id="path4166" d="M 30 21 L 30 25 L 34 25 L 34 21 L 30 21 z M 31 22 L 33 22 L 33 24 L 31 24 L 31 22 z M 29.335938 23.257812 L 27.404297 23.775391 L 27.664062 24.742188 L 29.595703 24.224609 L 29.335938 23.257812 z M 26.335938 24.257812 L 24.404297 24.775391 L 24.664062 25.742188 L 26.595703 25.224609 L 26.335938 24.257812 z M 35 24.533203 L 35 25.568359 L 41.142578 27.212891 L 35 28.966797 L 35 30 L 35 37.433594 L 35 38.46875 L 35 41.966797 L 35 43 L 35.029297 43 L 43 40.722656 L 43 40.666016 L 43 40.611328 L 43 39.683594 L 43 27.722656 L 43 27.710938 L 43 26.660156 L 35 24.533203 z M 23 25 A 1 1 0 0 0 22 26 A 1 1 0 0 0 23 27 A 1 1 0 0 0 24 26 A 1 1 0 0 0 23 25 z M 21 27 L 21 41 L 33 43 L 33 29 L 21 27 z M 42 28.007812 L 42 39.310547 L 36 37.701172 L 36 29.722656 L 42 28.007812 z M 36 38.736328 L 41.322266 40.162109 L 36 41.681641 L 36 38.736328 z "/>
</svg>

<?xml version="1.0" encoding="UTF-8" standalone="no"?>
<svg
   xmlns:dc="http://purl.org/dc/elements/1.1/"
   xmlns:cc="http://creativecommons.org/ns#"
   xmlns:rdf="http://www.w3.org/1999/02/22-rdf-syntax-ns#"
   xmlns:svg="http://www.w3.org/2000/svg"
   xmlns="http://www.w3.org/2000/svg"
   xmlns:xlink="http://www.w3.org/1999/xlink"
   xmlns:sodipodi="http://sodipodi.sourceforge.net/DTD/sodipodi-0.dtd"
   xmlns:inkscape="http://www.inkscape.org/namespaces/inkscape"
   width="64"
   version="1.1"
   viewBox="0 0 64 64"
   height="64"
   id="svg2"
   inkscape:version="0.91 r13725"
   sodipodi:docname="image-vnd.dwg.svg">
  <sodipodi:namedview
     pagecolor="#ffffff"
     bordercolor="#666666"
     borderopacity="1"
     objecttolerance="10"
     gridtolerance="10"
     guidetolerance="10"
     inkscape:pageopacity="0"
     inkscape:pageshadow="2"
     inkscape:window-width="1854"
     inkscape:window-height="1051"
     id="namedview25"
     showgrid="false"
     inkscape:zoom="3.6875"
     inkscape:cx="32"
     inkscape:cy="-11.389831"
     inkscape:window-x="66"
     inkscape:window-y="0"
     inkscape:window-maximized="1"
     inkscape:current-layer="svg2" />
  <defs
     id="defs4">
    <linearGradient
       id="linearGradient4300-2">
      <stop
         style="stop-color:#3a539b"
         id="stop4302-4" />
      <stop
         offset="1"
         style="stop-color:#3f5aa9"
         id="stop4304-1" />
    </linearGradient>
    <linearGradient
       inkscape:collect="always"
       xlink:href="#linearGradient4300-2"
       id="linearGradient4306-3"
       y1="61"
       y2="3"
       x2="0"
       gradientUnits="userSpaceOnUse"
       gradientTransform="matrix(1.3181818,0,0,1,-10.181818,0)" />
  </defs>
  <metadata
     id="metadata84">
    <rdf:RDF>
      <cc:Work
         rdf:about="">
        <dc:format>image/svg+xml</dc:format>
        <dc:type
           rdf:resource="http://purl.org/dc/dcmitype/StillImage" />
      </cc:Work>
    </rdf:RDF>
  </metadata>
  <path
     style="fill:url(#linearGradient4306-3);fill-opacity:1.0"
     id="rect3500-3"
     d="M 3,3 3,61 42.545455,61 61,61 61,17 61,3 42.545455,3 Z"
     inkscape:connector-curvature="0"
     sodipodi:nodetypes="cccccccc" />
  <rect
     width="58"
     x="3"
     y="60"
     height="1"
     style="fill:#2e3132;fill-opacity:0.29411801"
     id="rect4169-5" />
  <rect
     width="58"
     x="3"
     y="3"
     height="1"
     style="fill:#ffffff;fill-opacity:0.40983599"
     id="rect4236-6" />
  <path
     style="fill:#c1cae7;fill-rule:evenodd;fill-opacity:1"
     id="path4166-3"
     d="m 30,21 0,4 4,0 0,-4 -4,0 z m 1,1 2,0 0,2 -2,0 0,-2 z m -1.664062,1.25781 -1.931641,0.51758 0.259765,0.9668 1.931641,-0.51758 -0.259765,-0.9668 z m -3,1 -1.931641,0.51758 0.259765,0.9668 1.931641,-0.51758 -0.259765,-0.9668 z M 35,24.5332 35,25.56836 41.142578,27.21289 35,28.9668 35,30 l 0,7.43359 0,1.03516 0,3.49805 L 35,43 35.0293,43 43,40.72266 l 0,-0.0566 0,-0.0547 0,-0.92774 0,-11.96094 0,-0.0117 0,-1.05078 -8,-2.12695 z M 23,25 a 1,1 0 0 0 -1,1 1,1 0 0 0 1,1 1,1 0 0 0 1,-1 1,1 0 0 0 -1,-1 z m -2,2 0,14 12,2 0,-14 -12,-2 z m 21,1.00781 0,11.30274 -6,-1.60938 0,-7.97851 6,-1.71485 z M 36,38.73633 41.322266,40.16211 36,41.68164 36,38.73633 Z"
     inkscape:connector-curvature="0" />
</svg>
